src/pages/headings/UeberUns.svg

<svg viewBox="0 0 393 100" fill="none" xmlns="http://www.w3.org/2000/svg">
    <path d="M12.6001 88.2C5.31005 88.2 5.40167e-05 82.71 5.40167e-05 75.78C5.40167e-05 57.96 26.1001 34.02 26.1001 22.05C26.1001 19.44 24.6601 16.74 20.9701 16.74C17.6401 16.74 13.2301 18.99 9.90005 22.05L9.18005 21.24C13.5001 17.55 18.5401 14.85 23.0401 14.85C29.1601 14.85 31.0501 19.44 31.0501 22.86C31.0501 34.02 5.67005 59.4 5.67005 74.79C5.67005 81.27 9.54006 84.78 15.2101 84.78C25.8301 84.78 39.9601 70.2 53.8201 52.29C62.2801 37.26 71.7301 21.69 75.3301 16.02C75.6001 15.66 75.9601 15.48 76.4101 15.48H79.7401C80.4601 15.48 80.7301 15.93 80.3701 16.56C73.5301 27.45 57.4201 54.36 51.3001 67.14C47.9701 74.16 46.4401 78.39 46.4401 80.46C46.4401 82.71 47.6101 83.7 49.1401 83.7C51.1201 83.7 54.0001 82.62 58.4101 78.75L59.0401 79.65C53.4601 84.42 47.8801 88.11 45.1801 88.11C41.6701 88.11 40.4101 85.32 40.4101 82.89C40.4101 79.56 41.5801 75.33 44.8201 68.94L50.3101 58.68C32.8501 80.46 20.8801 88.2 12.6001 88.2ZM60.1201 8.64001C59.3101 8.64001 58.0501 7.47001 58.0501 5.85001C58.0501 5.22001 58.3201 4.14001 58.9501 3.24001C60.0301 1.44001 61.8301 5.36442e-06 62.9101 5.36442e-06C63.8101 5.36442e-06 64.8901 1.08001 64.8901 2.61001C64.8901 3.42001 64.6201 4.50001 63.9901 5.40001C63.2701 6.66001 61.3801 8.64001 60.1201 8.64001ZM45.1801 8.64001C44.3701 8.64001 43.1101 7.47001 43.1101 5.85001C43.1101 5.22001 43.3801 4.14001 44.0101 3.24001C45.0001 1.44001 46.8901 5.36442e-06 47.8801 5.36442e-06C48.8701 5.36442e-06 49.9501 1.08001 49.9501 2.61001C49.9501 3.42001 49.6801 4.50001 49.0501 5.40001C48.3301 6.66001 46.4401 8.64001 45.1801 8.64001ZM76.5739 88.11C67.7539 88.11 63.5239 79.2 67.5739 71.46L81.6139 44.82C91.3339 26.37 105.374 14.85 124.184 14.85C129.494 14.85 132.464 15.39 132.464 16.74C132.464 18.09 130.124 21.33 127.154 21.33C124.274 21.33 119.234 19.98 111.584 17.91C102.224 20.97 96.3739 25.83 89.9839 38.25L73.3339 70.47C78.8239 63.72 85.0339 57.33 90.6139 52.2C97.5439 45.9 103.664 41.85 106.904 41.85C110.594 41.85 111.944 45.36 111.944 48.51C111.944 66.51 93.4939 88.11 76.5739 88.11ZM80.4439 85.68C95.7439 85.68 106.274 63.99 106.274 51.03C106.274 47.16 104.924 45.81 103.034 45.81C100.784 45.81 96.4639 48.51 91.3339 53.01C85.2139 58.32 78.1039 65.97 72.0739 73.71C70.7239 82.35 76.3039 85.68 80.4439 85.68ZM123.145 88.11C116.485 88.11 112.885 83.88 112.885 77.76C112.885 61.56 133.045 41.67 146.815 41.67C151.405 41.67 153.925 43.47 153.925 46.53C153.925 51.93 146.815 59.13 119.005 76.5C119.275 80.64 121.435 84.24 127.285 84.24C130.075 84.24 135.385 83.25 142.675 76.77L143.305 77.49C134.935 85.5 127.375 88.11 123.145 88.11ZM119.005 75.42C137.725 63.72 147.715 56.43 147.715 49.05C147.715 45.81 145.105 44.73 142.585 44.73C128.995 44.73 119.095 63.54 119.005 75.42ZM151.095 87.48C150.465 87.48 150.195 87.03 150.555 86.4C155.865 77.04 168.645 54.27 168.645 48.6C168.645 47.07 167.745 46.08 166.215 46.08C164.235 46.08 161.535 47.34 157.125 51.21L156.495 50.31C162.075 45.54 167.655 41.85 170.535 41.85C173.685 41.85 174.765 44.46 174.765 46.53C174.765 48.51 172.875 53.37 170.175 58.95C176.295 49.68 184.125 41.85 195.735 41.85C198.075 41.85 199.965 42.21 199.965 43.38C199.965 45.54 196.905 48.6 193.845 48.6C191.055 48.6 187.725 48.24 183.045 46.8C177.195 50.04 170.625 59.31 165.315 68.85C161.085 77.13 156.765 84.87 155.505 86.85C155.235 87.3 154.875 87.48 154.425 87.48H151.095ZM197.27 63.54V27.72C197.27 26.91 197.9 26.28 198.8 26.28H208.7C209.69 26.28 210.23 26.91 210.23 27.72V63.72C210.23 72.54 215.36 77.22 223.01 77.22C230.66 77.22 235.7 72.54 235.7 63.72V27.72C235.7 26.91 236.33 26.28 237.23 26.28H247.13C248.12 26.28 248.66 26.91 248.66 27.72V63.54C248.66 78.84 238.58 88.38 223.01 88.38C207.44 88.38 197.27 78.84 197.27 63.54ZM272.996 86.04C272.996 86.85 272.366 87.48 271.466 87.48H262.196C261.386 87.48 260.666 86.85 260.666 86.04V27.72C260.666 26.91 261.386 26.28 262.196 26.28H272.636C273.806 26.28 274.436 26.64 274.976 27.54L300.086 68.31V27.72C300.086 26.91 300.626 26.28 301.616 26.28H310.796C311.786 26.28 312.326 26.91 312.326 27.72V86.04C312.326 86.85 311.786 87.48 310.796 87.48H300.806C299.726 87.48 299.096 87.03 298.556 86.13L272.996 45.54V86.04ZM347.491 77.22C353.071 77.22 356.221 74.79 356.221 71.28C356.221 67.32 353.701 65.52 342.091 62.1C327.691 57.96 322.741 52.29 322.741 43.29C322.741 33.66 329.761 25.38 345.511 25.38C353.341 25.38 361.801 27.99 367.741 31.32C368.911 32.04 368.911 32.76 368.551 33.57L365.041 41.22C364.411 42.48 363.871 42.93 362.251 42.12C357.841 39.6 351.181 36.54 344.971 36.54C338.491 36.54 336.331 39.06 336.331 42.03C336.331 45.9 339.391 47.25 350.641 50.67C362.971 54.45 369.811 59.04 369.811 69.75C369.811 81.27 360.721 88.38 347.221 88.38C336.871 88.38 329.401 86.04 322.831 82.53C321.481 81.81 321.301 81.09 321.931 79.92L325.531 72.27C326.071 71.19 326.701 70.92 327.781 71.55C334.531 74.88 340.201 77.22 347.491 77.22ZM375.187 96.57L379.057 76.5C379.327 74.97 380.497 74.43 382.027 74.43H390.397C392.107 74.43 392.557 75.24 391.927 77.04L384.277 97.02C383.827 98.37 382.837 99.09 381.397 99.09H376.627C375.097 99.09 374.917 98.19 375.187 96.57Z" fill="black"/>
</svg>

<svg xmlns="http://www.w3.org/2000/svg" width="393" height="100" fill="none"><path fill="#000" d="M12.6 88.2C5.31 88.2 0 82.71 0 75.78c0-17.82 26.1-41.76 26.1-53.73 0-2.61-1.44-5.31-5.13-5.31-3.33 0-7.74 2.25-11.07 5.31l-.72-.81c4.32-3.69 9.36-6.39 13.86-6.39 6.12 0 8.01 4.59 8.01 8.01 0 11.16-25.38 36.54-25.38 51.93 0 6.48 3.87 9.99 9.54 9.99 10.62 0 24.75-14.58 38.61-32.49a963 963 0 0 1 21.51-36.27q.4-.54 1.08-.54h3.33c.72 0 .99.45.63 1.08-6.84 10.89-22.95 37.8-29.07 50.58-3.33 7.02-4.86 11.25-4.86 13.32 0 2.25 1.17 3.24 2.7 3.24 1.98 0 4.86-1.08 9.27-4.95l.63.9c-5.58 4.77-11.16 8.46-13.86 8.46-3.51 0-4.77-2.79-4.77-5.22 0-3.33 1.17-7.56 4.41-13.95l5.49-10.26C32.85 80.46 20.88 88.2 12.6 88.2M60.12 8.64c-.81 0-2.07-1.17-2.07-2.79 0-.63.27-1.71.9-2.61C60.03 1.44 61.83 0 62.91 0c.9 0 1.98 1.08 1.98 2.61a5 5 0 0 1-.9 2.79c-.72 1.26-2.61 3.24-3.87 3.24m-14.94 0c-.81 0-2.07-1.17-2.07-2.79 0-.63.27-1.71.9-2.61C45 1.44 46.89 0 47.88 0s2.07 1.08 2.07 2.61a5 5 0 0 1-.9 2.79c-.72 1.26-2.61 3.24-3.87 3.24m31.4 79.47c-8.83 0-13.06-8.91-9-16.65L81.6 44.82c9.72-18.45 23.76-29.97 42.57-29.97 5.31 0 8.28.54 8.28 1.89s-2.34 4.59-5.3 4.59c-2.89 0-7.93-1.35-15.58-3.42-9.36 3.06-15.2 7.92-21.6 20.34L73.33 70.47A179 179 0 0 1 90.61 52.2c6.93-6.3 13.05-10.35 16.3-10.35 3.68 0 5.03 3.51 5.03 6.66 0 18-18.45 39.6-35.37 39.6m3.86-2.43c15.3 0 25.83-21.69 25.83-34.65 0-3.87-1.35-5.22-3.24-5.22-2.25 0-6.57 2.7-11.7 7.2-6.12 5.31-13.23 12.96-19.26 20.7-1.35 8.64 4.23 11.97 8.37 11.97m42.7 2.43c-6.66 0-10.25-4.23-10.25-10.35 0-16.2 20.15-36.09 33.92-36.09 4.6 0 7.12 1.8 7.12 4.86 0 5.4-7.12 12.6-34.93 29.97.28 4.14 2.44 7.74 8.28 7.74 2.8 0 8.1-.99 15.4-7.47l.63.72c-8.37 8.01-15.94 10.62-20.17 10.62M119 75.42c18.72-11.7 28.72-18.99 28.72-26.37 0-3.24-2.62-4.32-5.13-4.32-13.6 0-23.5 18.81-23.59 30.69m32.1 12.06c-.63 0-.9-.45-.54-1.08 5.3-9.36 18.09-32.13 18.09-37.8 0-1.53-.9-2.52-2.44-2.52-1.97 0-4.68 1.26-9.09 5.13l-.62-.9c5.57-4.77 11.16-8.46 14.03-8.46 3.16 0 4.23 2.61 4.23 4.68 0 1.98-1.88 6.84-4.58 12.42 6.11-9.27 13.94-17.1 25.56-17.1 2.33 0 4.22.36 4.22 1.53 0 2.16-3.06 5.22-6.12 5.22-2.78 0-6.12-.36-10.8-1.8-5.84 3.24-12.41 12.51-17.72 22.05a322 322 0 0 1-9.81 18c-.27.45-.63.63-1.08.63zm46.17-23.94V27.72c0-.81.63-1.44 1.53-1.44h9.9c.99 0 1.53.63 1.53 1.44v36c0 8.82 5.13 13.5 12.78 13.5s12.69-4.68 12.69-13.5v-36c0-.81.63-1.44 1.53-1.44h9.9c.99 0 1.53.63 1.53 1.44v35.82c0 15.3-10.08 24.84-25.65 24.84s-25.74-9.54-25.74-24.84M273 86.04c0 .81-.63 1.44-1.53 1.44h-9.27c-.81 0-1.53-.63-1.53-1.44V27.72c0-.81.72-1.44 1.53-1.44h10.44c1.17 0 1.8.36 2.34 1.26l25.1 40.77V27.72c0-.81.55-1.44 1.54-1.44h9.18c.99 0 1.53.63 1.53 1.44v58.32c0 .81-.54 1.44-1.53 1.44h-10c-1.07 0-1.7-.45-2.24-1.35L273 45.54zm74.5-8.82c5.57 0 8.72-2.43 8.72-5.94 0-3.96-2.52-5.76-14.13-9.18-14.4-4.14-19.35-9.81-19.35-18.81 0-9.63 7.02-17.91 22.77-17.91 7.83 0 16.3 2.61 22.23 5.94 1.17.72 1.17 1.44.81 2.25l-3.5 7.65c-.64 1.26-1.18 1.71-2.8.9-4.4-2.52-11.07-5.58-17.28-5.58-6.48 0-8.64 2.52-8.64 5.49 0 3.87 3.06 5.22 14.31 8.64 12.33 3.78 19.17 8.37 19.17 19.08 0 11.52-9.09 18.63-22.59 18.63-10.35 0-17.82-2.34-24.39-5.85-1.35-.72-1.53-1.44-.9-2.61l3.6-7.65c.54-1.08 1.17-1.35 2.25-.72 6.75 3.33 12.42 5.67 19.71 5.67m27.69 19.35 3.87-20.07c.27-1.53 1.44-2.07 2.97-2.07h8.37c1.7 0 2.16.81 1.53 2.61l-7.65 19.98a2.8 2.8 0 0 1-2.88 2.07h-4.77c-1.53 0-1.71-.9-1.44-2.52"/></svg>
